; generated by PrusaSlicer 2.5.0+win64 on 2025-01-02 at 22:23:16 UTC


;
;

;
;
; 

; external perimeters extrusion width = 0.45mm
; perimeters extrusion width = 0.45mm
; infill extrusion width = 0.45mm
; solid infill extrusion width = 0.45mm
; top infill extrusion width = 0.40mm
; first layer extrusion width = 0.42mm

M73 P0 R234
M201 X2500 Y2500 Z400 E5000 ; sets maximum accelerations, mm/sec^2
M203 X180 Y180 Z12 E80 ; sets maximum feedrates, mm / sec
M204 P1250 R1250 T2500 ; sets acceleration (P, T) and retract acceleration (R), mm/sec^2
M205 X8.00 Y8.00 Z2.00 E10.00 ; sets the jerk limits, mm/sec
M205 S0 T0 ; sets the minimum extruding and travel feed rate, mm/sec
M107
;TYPE:Custom
M862.3 P "MINI" ; printer model check
G90 ; use absolute coordinates
M83 ; extruder relative mode
M104 S170 ; set extruder temp for bed leveling
M140 S60 ; set bed temp
M109 R170 ; wait for bed leveling temp
M190 S60 ; wait for bed temp
M204 T1250 ; set travel acceleration
G28 ; home all without mesh bed level
G29 ; mesh bed leveling 
M204 T2500 ; restore travel acceleration
M104 S215 ; set extruder temp
G92 E0
G1 Y-2 X179 F2400
G1 Z3 F720
M109 S215 ; wait for extruder temp

; intro line
G1 X170 F1000
G1 Z0.2 F720
G1 X110 E8 F900
G1 X40 E10 F700
G92 E0

M221 S95 ; set flow
G21 ; set units to millimeters
G90 ; use absolute coordinates
M83 ; use relative distances for extrusion
M900 K0.2 ; Filament gcode LA 1.5
; ; Filament gcode LA 1.0
M107
;LAYER_CHANGE
;Z:0.2
;HEIGHT:0.2
;BEFORE_LAYER_CHANGE
G92 E0.0
;0.2


G1 E-3.2 F4200
G1 Z.2 F720
;AFTER_LAYER_CHANGE
;0.2
G1 Z.4
G1 X37.831 Y50.586 F9000
G1 Z.2 F720
G1 E3.2 F2400
M204 P800
;TYPE:Skirt/Brim
;WIDTH:0.42
G1 F1200
G1 X38.565 Y50.171 E.02644
G1 X39.346 Y49.879 E.02614
G1 X40.835 Y49.663 E.0472
G1 X130.66 Y49.671 E2.81638
G1 X131.953 Y49.875 E.04104
M73 P0 R233
G1 X132.745 Y50.171 E.02652
G1 X133.773 Y50.8 E.03778
G1 X134.401 Y51.374 E.02666
G1 X134.927 Y52.035 E.0265
G1 X135.342 Y52.769 E.02644
G1 X135.746 Y54.008 E.04087
G1 X135.843 Y54.85 E.02656
G1 X135.85 Y112.296 E1.80119
G1 X135.638 Y113.775 E.04686
G1 X135.173 Y114.9 E.03816
G1 X134.403 Y115.96 E.04108
G1 X133.479 Y116.75 E.03812
G1 X132.745 Y117.165 E.02644
G1 X131.955 Y117.461 E.02644
G1 X130.475 Y117.673 E.0469
G1 X40.837 Y117.673 E2.81053
G1 X39.363 Y117.463 E.04669
G1 X38.233 Y116.996 E.03833
G1 X37.173 Y116.226 E.04105
G1 X36.383 Y115.301 E.03815
G1 X35.968 Y114.568 E.02644
G1 X35.674 Y113.784 E.02624
G1 X35.46 Y112.297 E.04709
G1 X35.46 Y55.04 E1.79525
G1 X35.671 Y53.564 E.04675
G1 X36.137 Y52.436 E.03827
G1 X36.906 Y51.377 E.04105
G1 X37.786 Y50.625 E.03627
M204 P1000
; printing object 2_Enclosure_Base.STL id:0 copy 0
G1 E-2.24 F4200
;WIPE_START
G1 F7200
G1 X38.565 Y50.171 E-.49991
G1 X39.261 Y49.91 E-.41209
;WIPE_END
G1 E-.048 F4200
G1 Z.4 F720
G1 X68.667 Y58.913 F9000
G1 Z.2 F720
G1 E3.2 F2400
M204 P800
;TYPE:Perimeter
;WIDTH:0.419999
G1 F1200
G1 X68.72 Y59.031 E.00406
G1 X68.856 Y59.552 E.0169
G1 X68.873 Y59.742 E.00597
G1 X68.828 Y60.288 E.01716
G1 X68.779 Y60.474 E.00603
G1 X68.556 Y60.969 E.01703
G1 X68.448 Y61.127 E.00599
G1 X68.073 Y61.519 E.01703
G1 X67.919 Y61.633 E.00599
G1 X67.434 Y61.877 E.01703
G1 X67.251 Y61.933 E.00599
G1 X66.712 Y62.002 E.01703
G1 X66.341 Y61.955 E.01173
G1 X65.854 Y61.831 E.01578
G1 X65.35 Y61.524 E.01849
G1 X65.207 Y61.397 E.00599
G1 X64.866 Y60.975 E.01703
G1 X64.772 Y60.808 E.00599
G1 X64.591 Y60.296 E.01703
G1 X64.559 Y60.107 E.00599
G1 X64.559 Y59.564 E.01703
G1 X64.591 Y59.376 E.00599
G1 X64.772 Y58.864 E.01703
G1 X64.866 Y58.697 E.00599
G1 X65.207 Y58.274 E.01703
G1 X65.35 Y58.148 E.00599
G1 X65.813 Y57.863 E.01703
G1 X66.521 Y57.677 E.02296
G1 X66.937 Y57.677 E.01303
G1 X67.598 Y57.86 E.02151
G1 X67.768 Y57.946 E.00599
G1 X68.205 Y58.269 E.01703
G1 X68.337 Y58.407 E.00599
G1 X68.642 Y58.858 E.01707
M204 P1000
G1 X68.273 Y58.988 F9000
M204 P800
;TYPE:External perimeter
G1 F1200
G1 X68.329 Y59.068 E.00306
G1 X68.492 Y59.648 E.01887
G1 X68.452 Y60.256 E.01913
G1 X68.212 Y60.813 E.01901
G1 X67.8 Y61.258 E.019
G1 X67.264 Y61.541 E.019
G1 X66.664 Y61.628 E.019
G1 X66.07 Y61.511 E.019
G1 X65.548 Y61.203 E.019
G1 X65.159 Y60.738 E.019
G1 X64.947 Y60.17 E.019
G1 X64.936 Y59.564 E.019
G1 X65.128 Y58.989 E.019
G1 X65.5 Y58.511 E.019
G1 X66.011 Y58.184 E.019
G1 X66.601 Y58.046 E.019
G1 X66.968 Y58.062 E.01153
G1 X67.487 Y58.221 E.01703
G1 X67.981 Y58.572 E.019
G1 X68.239 Y58.939 E.01407
M204 P1000
G1 X68.37 Y58.974 F9000
G1 E-2.24 F4200
;WIPE_START
G1 F7200
G1 X68.329 Y59.068 E-.08727
G1 X68.492 Y59.648 E-.33345
G1 X68.452 Y60.256 E-.33803
G1 X68.342 Y60.51 E-.15325
;WIPE_END
G1 E-.048 F4200
G1 Z.4 F720
G1 X66.55 Y106.683 F9000
G1 Z.2 F720
G1 E3.2 F2400
M204 P800
;TYPE:Perimeter
G1 F1200
G1 X66.665 Y106.665 E.00364
G1 X67.077 Y106.701 E.01298
G1 X67.593 Y106.859 E.01693
G1 X67.764 Y106.945 E.00599
G1 X68.198 Y107.266 E.01693
G1 X68.33 Y107.404 E.00599
G1 X68.633 Y107.851 E.01693
G1 X68.711 Y108.025 E.00598
G1 X68.865 Y108.661 E.02052
G1 X68.818 Y109.275 E.0193
G1 X68.77 Y109.461 E.00603
G1 X68.547 Y109.953 E.01693
G1 X68.067 Y110.502 E.02286
G1 X67.431 Y110.858 E.02286
G1 X66.713 Y110.983 E.02286
G1 X66.522 Y110.975 E.00599
G1 X65.994 Y110.861 E.01693
G1 X65.357 Y110.507 E.02286
G1 X64.874 Y109.96 E.02286
G1 X64.781 Y109.793 E.00599
G1 X64.601 Y109.284 E.01693
G1 X64.569 Y109.096 E.00599
G1 X64.569 Y108.556 E.01693
G1 X64.601 Y108.368 E.00599
G1 X64.781 Y107.859 E.01693
G1 X64.874 Y107.692 E.00599
G1 X65.213 Y107.272 E.01693
G1 X65.357 Y107.145 E.00599
G1 X65.817 Y106.862 E.01693
G1 X66.341 Y106.716 E.01708
G1 X66.491 Y106.693 E.00474
M204 P1000
G1 X66.633 Y107.047 F9000
M204 P800
;TYPE:External perimeter
G1 F1200
G1 X66.967 Y107.061 E.01047
G1 X67.483 Y107.22 E.01693
G1 X67.974 Y107.569 E.0189
G1 X68.32 Y108.063 E.0189
G1 X68.488 Y108.678 E.02
G1 X68.442 Y109.244 E.01781
G1 X68.204 Y109.798 E.01891
G1 X67.795 Y110.241 E.0189
G1 X67.261 Y110.522 E.0189
G1 X66.665 Y110.609 E.0189
G1 X66.073 Y110.492 E.0189
G1 X65.555 Y110.186 E.0189
G1 X65.168 Y109.723 E.0189
G1 X64.957 Y109.159 E.0189
G1 X64.946 Y108.556 E.0189
G1 X65.136 Y107.984 E.0189
G1 X65.507 Y107.509 E.0189
G1 X66.014 Y107.183 E.0189
G1 X66.574 Y107.052 E.01802
M204 P1000
G1 X66.77 Y106.743 F9000
G1 E-2.24 F4200
;WIPE_START
G1 F7200
G1 X66.967 Y107.061 E-.21776
G1 X67.483 Y107.22 E-.29918
G1 X67.974 Y107.569 E-.33403
G1 X68.037 Y107.659 E-.06102
;WIPE_END
G1 E-.048 F4200
G1 Z.4 F720
G1 X124.593 Y106.681 F9000
G1 Z.2 F720
G1 E3.2 F2400
M204 P800
;TYPE:Perimeter
G1 F1200
G1 X125.001 Y106.686 E.01278
G1 X125.59 Y106.861 E.01928
G1 X125.761 Y106.947 E.00599
G1 X126.194 Y107.268 E.0169
G1 X126.327 Y107.406 E.00599
G1 X126.628 Y107.852 E.0169
G1 X126.707 Y108.026 E.00598
G1 X126.842 Y108.544 E.01677
G1 X126.859 Y108.733 E.00597
G1 X126.814 Y109.275 E.01703
G1 X126.765 Y109.461 E.00603
G1 X126.542 Y109.954 E.01697
G1 X126.063 Y110.5 E.02276
G1 X125.428 Y110.856 E.02283
G1 X124.711 Y110.981 E.02283
G1 X124.52 Y110.972 E.00599
G1 X123.993 Y110.859 E.0169
G1 X123.356 Y110.505 E.02283
G1 X122.874 Y109.959 E.02283
G1 X122.781 Y109.792 E.00599
G1 X122.601 Y109.284 E.0169
G1 X122.569 Y109.096 E.00599
G1 X122.569 Y108.556 E.0169
G1 X122.601 Y108.368 E.00599
G1 X122.781 Y107.86 E.0169
G1 X122.874 Y107.693 E.006
G1 X123.213 Y107.273 E.0169
G1 X123.356 Y107.147 E.00599
G1 X123.815 Y106.864 E.0169
G1 X123.993 Y106.793 E.00599
G1 X124.533 Y106.68 E.01732
M204 P1000
G1 X124.649 Y107.05 F9000
M204 P800
;TYPE:External perimeter
G1 F1200
G1 X124.964 Y107.064 E.00989
G1 X125.48 Y107.222 E.0169
G1 X125.97 Y107.571 E.01888
G1 X126.316 Y108.063 E.01888
G1 X126.483 Y108.702 E.0207
G1 X126.438 Y109.244 E.01703
G1 X126.2 Y109.797 E.01889
G1 X125.791 Y110.239 E.01888
G1 X125.258 Y110.519 E.01888
G1 X124.663 Y110.607 E.01888
G1 X124.072 Y110.49 E.01888
G1 X123.554 Y110.184 E.01888
G1 X123.167 Y109.722 E.01888
G1 X122.957 Y109.158 E.01888
G1 X122.946 Y108.556 E.01888
G1 X123.136 Y107.985 E.01887
G1 X123.506 Y107.51 E.01888
G1 X124.013 Y107.186 E.01888
G1 X124.589 Y107.05 E.01857
M204 P1000
G1 X124.779 Y106.763 F9000
G1 E-2.24 F4200
;WIPE_START
G1 F7200
G1 X124.964 Y107.064 E-.20777
G1 X125.48 Y107.222 E-.29875
G1 X125.97 Y107.571 E-.33362
G1 X126.045 Y107.677 E-.07186
;WIPE_END
G1 E-.048 F4200
G1 Z.4 F720
G1 X125.986 Y58.099 F9000
G1 Z.2 F720
G1 E3.2 F2400
M204 P800
;TYPE:Perimeter
G1 F1200
G1 X126.477 Y58.573 E.02139
G1 X126.781 Y59.197 E.02178
G1 X126.878 Y59.765 E.01805
G1 X126.827 Y60.312 E.01725
G1 X126.556 Y60.971 E.02231
G1 X126.449 Y61.129 E.006
G1 X126.073 Y61.522 E.01707
G1 X125.919 Y61.636 E.00599
G1 X125.433 Y61.881 E.01707
G1 X125.25 Y61.937 E.00599
G1 X124.71 Y62.006 E.01707
G1 X124.519 Y61.998 E.00599
G1 X123.987 Y61.883 E.01707
G1 X123.809 Y61.812 E.00599
G1 X123.346 Y61.527 E.01707
G1 X123.202 Y61.4 E.00599
G1 X122.86 Y60.977 E.01707
G1 X122.767 Y60.81 E.00599
G1 X122.585 Y60.296 E.01707
G1 X122.553 Y60.108 E.00599
G1 X122.553 Y59.564 E.01707
G1 X122.585 Y59.375 E.00599
G1 X122.767 Y58.862 E.01707
G1 X122.86 Y58.695 E.00599
G1 X123.202 Y58.271 E.01707
G1 X123.346 Y58.145 E.00599
G1 X123.809 Y57.859 E.01707
G1 X124.519 Y57.673 E.023
G1 X124.71 Y57.665 E.00599
G1 X125.25 Y57.735 E.01707
G1 X125.942 Y58.058 E.02396
M204 P1000
G1 X125.632 Y58.316 F9000
M204 P800
;TYPE:External perimeter
G1 F1200
G1 X125.749 Y58.372 E.00408
G1 X126.186 Y58.813 E.01947
G1 X126.437 Y59.353 E.01865
G1 X126.504 Y59.859 E.01603
G1 X126.437 Y60.319 E.01455
G1 X126.213 Y60.815 E.01709
G1 X125.8 Y61.261 E.01904
G1 X125.263 Y61.544 E.01904
G1 X124.662 Y61.632 E.01904
G1 X124.066 Y61.515 E.01904
G1 X123.543 Y61.206 E.01904
G1 X123.153 Y60.74 E.01904
G1 X122.941 Y60.171 E.01904
G1 X122.93 Y59.564 E.01904
G1 X123.122 Y58.987 E.01904
G1 X123.495 Y58.508 E.01904
G1 X124.007 Y58.181 E.01904
G1 X124.598 Y58.042 E.01904
G1 X125.202 Y58.109 E.01904
G1 X125.578 Y58.29 E.01308
M204 P1000
G1 X125.735 Y58.236 F9000
G1 E-2.24 F4200
;WIPE_START
G1 F7200
G1 X125.749 Y58.372 E-.10543
G1 X126.186 Y58.813 E-.34414
G1 X126.437 Y59.353 E-.3296
G1 X126.468 Y59.59 E-.13283
;WIPE_END
G1 E-.048 F4200
G1 Z.4 F720
G1 X130.988 Y52.898 F9000
G1 Z.2 F720
G1 E3.2 F2400
M204 P800
;TYPE:Perimeter
G1 F1200
G1 X131.477 Y53.071 E.01627
G1 X131.904 Y53.365 E.01627
G1 X132.262 Y53.741 E.01627
G1 X132.509 Y54.197 E.01627
G1 X132.657 Y54.695 E.01627
G1 X132.686 Y55.163 E.01472
G1 X132.686 Y111.291 E1.75987
G1 X132.657 Y112.642 E.04235
G1 X132.509 Y113.139 E.01627
G1 X132.262 Y113.595 E.01627
G1 X131.904 Y113.972 E.01627
G1 X131.477 Y114.266 E.01627
G1 X130.988 Y114.439 E.01627
G1 X130.442 Y114.509 E.01724
G1 X40.959 Y114.509 E2.80567
G1 X40.491 Y114.479 E.01472
G1 X39.993 Y114.332 E.01627
G1 X39.537 Y114.084 E.01627
G1 X39.161 Y113.727 E.01627
G1 X38.867 Y113.3 E.01627
G1 X38.694 Y112.81 E.01627
G1 X38.624 Y112.265 E.01724
G1 X38.624 Y55.163 E1.79039
G1 X38.653 Y54.695 E.01472
G1 X38.801 Y54.197 E.01627
G1 X39.048 Y53.741 E.01627
G1 X39.406 Y53.365 E.01627
G1 X39.833 Y53.071 E.01627
G1 X40.322 Y52.898 E.01627
G1 X40.868 Y52.827 E.01724
G1 X130.442 Y52.827 E2.80855
G1 X130.928 Y52.89 E.01536
M204 P1000
G1 X131.078 Y52.532 F9000
M204 P800
;TYPE:External perimeter
G1 F1200
G1 X131.649 Y52.734 E.01898
G1 X132.149 Y53.078 E.01905
G1 X132.568 Y53.519 E.01905
G1 X132.858 Y54.053 E.01905
G1 X133.03 Y54.635 E.01905
G1 X133.063 Y55.163 E.01658
G1 X133.063 Y112.173 E1.78752
G1 X133.03 Y112.701 E.01658
G1 X132.858 Y113.284 E.01905
G1 X132.568 Y113.818 E.01905
G1 X132.149 Y114.258 E.01905
G1 X131.649 Y114.603 E.01905
G1 X131.076 Y114.805 E.01905
G1 X130.457 Y114.886 E.01956
G1 X40.959 Y114.886 E2.80613
G1 X40.432 Y114.853 E.01658
G1 X39.849 Y114.68 E.01905
G1 X39.315 Y114.39 E.01905
G1 X38.874 Y113.972 E.01905
G1 X38.53 Y113.471 E.01905
G1 X38.327 Y112.898 E.01905
G1 X38.247 Y112.28 E.01956
G1 X38.247 Y55.163 E1.79086
G1 X38.28 Y54.635 E.01658
G1 X38.452 Y54.053 E.01905
G1 X38.742 Y53.519 E.01905
G1 X39.161 Y53.078 E.01905
G1 X39.661 Y52.734 E.01905
G1 X40.234 Y52.531 E.01905
G1 X40.853 Y52.45 E.01956
G1 X130.351 Y52.45 E2.80613
G1 X130.563 Y52.459 E.00668
G1 X131.019 Y52.523 E.01441
M204 P1000
G1 X131.181 Y52.918 F9000
G1 X130.575 Y52.951
M204 P800
;TYPE:Solid infill
;WIDTH:0.420893
G1 F1200
G1 X132.378 Y54.754 E.08013
G1 X132.403 Y55.314 E.01763
G1 X130.199 Y53.11 E.09797
G1 X129.665 Y53.11 E.0168
G1 X132.403 Y55.849 E.12173
G1 X132.403 Y56.384 E.0168
G1 X129.13 Y53.11 E.14549
G1 X128.596 Y53.11 E.0168
G1 X132.403 Y56.918 E.16925
G1 X132.403 Y57.453 E.0168
G1 X128.061 Y53.11 E.19301
G1 X127.526 Y53.11 E.0168
G1 X132.403 Y57.987 E.21676
G1 X132.403 Y58.522 E.0168
G1 X126.992 Y53.11 E.24052
G1 X126.457 Y53.11 E.0168
G1 X132.403 Y59.056 E.26428
G1 X132.403 Y59.591 E.0168
G1 X125.923 Y53.11 E.28804
G1 X125.388 Y53.11 E.0168
G1 X132.403 Y60.125 E.3118
G1 X132.403 Y60.66 E.0168
G1 X124.854 Y53.11 E.33556
G1 X124.319 Y53.11 E.0168
G1 X132.403 Y61.194 E.35931
G1 X132.403 Y61.729 E.0168
G1 X123.785 Y53.11 E.38307
G1 X123.25 Y53.11 E.0168
G1 X132.403 Y62.263 E.40683
G1 X132.403 Y62.798 E.0168
G1 X122.716 Y53.11 E.43059
G1 X122.181 Y53.11 E.0168
M73 P0 R232
G1 X132.403 Y63.332 E.45435
G1 X132.403 Y63.867 E.0168
G1 X121.647 Y53.11 E.47811
G1 X121.112 Y53.11 E.0168
G1 X125.529 Y57.527 E.19631
G1 X126.053 Y57.787 E.01839
G1 X126.271 Y57.948 E.00852
G1 X126.697 Y58.395 E.01939
G1 X126.811 Y58.579 E.00681
G1 X127.002 Y59 E.01454
G1 X132.403 Y64.402 E.24007
G1 X132.403 Y64.936 E.0168
G1 X127.148 Y59.681 E.23358
G1 X127.166 Y59.836 E.00491
G1 X127.124 Y60.191 E.01125
G1 X132.403 Y65.471 E.23464
G1 X132.403 Y66.005 E.0168
G1 X127.023 Y60.625 E.23914
G1 X126.857 Y60.993 E.0127
G1 X132.403 Y66.54 E.24653
G1 X132.403 Y67.074 E.0168
G1 X126.654 Y61.325 E.25555
G1 X126.392 Y61.598 E.01188
G1 X132.403 Y67.609 E.26718
G1 X132.403 Y68.143 E.0168
G1 X126.106 Y61.846 E.2799
G1 X125.757 Y62.031 E.01243
G1 X132.403 Y68.678 E.29542
G1 X132.403 Y69.212 E.0168
G1 X125.385 Y62.194 E.31193
G1 X124.919 Y62.262 E.01481
G1 X132.403 Y69.747 E.33266
G1 X132.403 Y70.281 E.0168
G1 X124.153 Y62.031 E.36669
M204 P1000
G1 E-2.24 F4200
;WIPE_START
G1 F7200
G1 X125.317 Y63.195 E-.912
;WIPE_END
G1 E-.048 F4200
G1 Z.4 F720
G1 X125.064 Y57.597 F9000
G1 Z.2 F720
G1 E3.2 F2400
M204 P800
G1 F1200
G1 X120.577 Y53.11 E.19941
G1 X120.043 Y53.11 E.0168
G1 X124.353 Y57.42 E.19157
G1 X123.914 Y57.516 E.01413
G1 X119.508 Y53.11 E.19581
G1 X118.974 Y53.11 E.0168
G1 X123.55 Y57.687 E.20341
G1 X123.22 Y57.89 E.01221
G1 X118.439 Y53.11 E.21247
G1 X117.905 Y53.11 E.0168
G1 X122.94 Y58.145 E.2238
G1 X122.701 Y58.441 E.01195
G1 X117.37 Y53.11 E.23695
G1 X116.836 Y53.11 E.0168
G1 X122.498 Y58.773 E.25168
G1 X122.362 Y59.171 E.01322
G1 X116.301 Y53.11 E.26937
G1 X115.767 Y53.11 E.0168
G1 X122.27 Y59.614 E.28906
G1 X122.276 Y60.154 E.01697
G1 X115.232 Y53.11 E.31306
G1 X114.698 Y53.11 E.0168
G1 X132.403 Y70.816 E.78696
G1 X132.403 Y71.35 E.0168
G1 X114.163 Y53.11 E.81072
G1 X113.629 Y53.11 E.0168
G1 X132.403 Y71.885 E.83448
G1 X132.403 Y72.42 E.0168
G1 X113.094 Y53.11 E.85824
G1 X112.559 Y53.11 E.0168
G1 X132.403 Y72.954 E.882
G1 X132.403 Y73.489 E.0168
G1 X112.025 Y53.11 E.90575
G1 X111.49 Y53.11 E.0168
G1 X132.403 Y74.023 E.92951
G1 X132.403 Y74.558 E.0168
G1 X110.956 Y53.11 E.95327
G1 X110.421 Y53.11 E.0168
G1 X132.403 Y75.092 E.97703
G1 X132.403 Y75.627 E.0168
G1 X109.887 Y53.11 E1.00079
G1 X109.352 Y53.11 E.0168
G1 X132.403 Y76.161 E1.02455
G1 X132.403 Y76.696 E.0168
G1 X108.818 Y53.11 E1.0483
G1 X108.283 Y53.11 E.0168
G1 X132.403 Y77.23 E1.07206
G1 X132.403 Y77.765 E.0168
G1 X107.749 Y53.11 E1.09582
G1 X107.214 Y53.11 E.0168
G1 X132.403 Y78.299 E1.11958
G1 X132.403 Y78.834 E.0168
G1 X106.68 Y53.11 E1.14334
G1 X106.145 Y53.11 E.0168
G1 X132.403 Y79.369 E1.1671
G1 X132.403 Y79.903 E.0168
G1 X105.611 Y53.11 E1.19085
G1 X105.076 Y53.11 E.0168
G1 X132.403 Y80.438 E1.21461
G1 X132.403 Y80.972 E.0168
G1 X104.541 Y53.11 E1.23837
G1 X104.007 Y53.11 E.0168
G1 X132.403 Y81.507 E1.26213
G1 X132.403 Y82.041 E.0168
G1 X103.472 Y53.11 E1.28589
G1 X102.938 Y53.11 E.0168
G1 X132.403 Y82.576 E1.30965
G1 X132.403 Y83.11 E.0168
G1 X102.403 Y53.11 E1.3334
G1 X101.869 Y53.11 E.0168
