; generated by PrusaSlicer 2.5.0+win64 on 2025-01-02 at 22:23:57 UTC


;
;

;
;
; 

; external perimeters extrusion width = 0.45mm
; perimeters extrusion width = 0.45mm
; infill extrusion width = 0.45mm
; solid infill extrusion width = 0.45mm
; top infill extrusion width = 0.40mm
; first layer extrusion width = 0.42mm

M73 P0 R82
M201 X2500 Y2500 Z400 E5000 ; sets maximum accelerations, mm/sec^2
M203 X180 Y180 Z12 E80 ; sets maximum feedrates, mm / sec
M204 P1250 R1250 T2500 ; sets acceleration (P, T) and retract acceleration (R), mm/sec^2
M205 X8.00 Y8.00 Z2.00 E10.00 ; sets the jerk limits, mm/sec
M205 S0 T0 ; sets the minimum extruding and travel feed rate, mm/sec
M107
;TYPE:Custom
M862.3 P "MINI" ; printer model check
G90 ; use absolute coordinates
M83 ; extruder relative mode
M104 S170 ; set extruder temp for bed leveling
M140 S60 ; set bed temp
M109 R170 ; wait for bed leveling temp
M190 S60 ; wait for bed temp
M204 T1250 ; set travel acceleration
G28 ; home all without mesh bed level
G29 ; mesh bed leveling 
M204 T2500 ; restore travel acceleration
M104 S215 ; set extruder temp
G92 E0
G1 Y-2 X179 F2400
G1 Z3 F720
M109 S215 ; wait for extruder temp

; intro line
G1 X170 F1000
G1 Z0.2 F720
G1 X110 E8 F900
G1 X40 E10 F700
G92 E0

M221 S95 ; set flow
G21 ; set units to millimeters
G90 ; use absolute coordinates
M83 ; use relative distances for extrusion
M900 K0.2 ; Filament gcode LA 1.5
; ; Filament gcode LA 1.0
M107
;LAYER_CHANGE
;Z:0.2
;HEIGHT:0.2
;BEFORE_LAYER_CHANGE
G92 E0.0
;0.2


G1 E-3.2 F4200
G1 Z.2 F720
;AFTER_LAYER_CHANGE
;0.2
G1 Z.4
G1 X41.875 Y57.138 F9000
G1 Z.2 F720
G1 E3.2 F2400
M204 P800
;TYPE:Skirt/Brim
;WIDTH:0.42
G1 F1200
G1 X42.578 Y56.672 E.02644
G1 X43.345 Y56.323 E.02643
G1 X44.526 Y56.039 E.03808
G1 X71.054 Y53.995 E.83423
G1 X129.051 Y53.995 E1.81848
G1 X129.777 Y54.109 E.02304
G1 X136.471 Y56.255 E.22041
G1 X137.09 Y56.503 E.02089
G1 X137.824 Y56.918 E.02644
G1 X138.747 Y57.707 E.03808
G1 X139.484 Y58.713 E.0391
G1 X139.868 Y59.535 E.02845
G1 X140.151 Y60.716 E.03808
G1 X140.195 Y118.628 E1.81578
G1 X140.093 Y119.652 E.03227
M73 P0 R81
G1 X139.687 Y120.899 E.04112
G1 X139.053 Y121.935 E.03808
G1 X138.125 Y122.863 E.04113
G1 X137.422 Y123.328 E.02643
G1 X136.471 Y123.745 E.03256
G1 X129.777 Y125.891 E.22041
G1 X129.051 Y126.005 E.02304
G1 X71.054 Y126.005 E1.81848
G1 X44.526 Y123.961 E.83423
G1 X43.7 Y123.792 E.02644
G1 X42.578 Y123.328 E.03808
G1 X41.517 Y122.557 E.04112
G1 X40.947 Y121.935 E.02644
G1 X40.482 Y121.232 E.02643
G1 X40.132 Y120.465 E.02644
G1 X39.907 Y119.652 E.02644
G1 X39.805 Y118.628 E.03227
G1 X39.805 Y61.372 E1.79521
G1 X39.907 Y60.348 E.03227
G1 X40.313 Y59.1 E.04113
G1 X40.947 Y58.065 E.03808
G1 X41.832 Y57.18 E.03925
M204 P1000
; printing object 3_Enclosure_Lid.STL id:0 copy 0
G1 E-2.24 F4200
;WIPE_START
G1 F7200
G1 X42.578 Y56.672 E-.49985
G1 X43.255 Y56.364 E-.41215
;WIPE_END
G1 E-.048 F4200
G1 Z.4 F720
G1 X100.169 Y88.723 F9000
G1 Z.2 F720
G1 E3.2 F2400
M204 P800
;TYPE:Perimeter
;WIDTH:0.419999
G1 F1200
G1 X100.099 Y88.806 E.00341
G1 X111.843 Y88.804 E.36824
;WIDTH:0.457947
G1 X112.004 Y88.785 E.00557
;WIDTH:0.495895
G1 X112.164 Y88.766 E.00608
;WIDTH:0.533843
G1 X112.325 Y88.747 E.00659
;WIDTH:0.57179
G1 X112.485 Y88.728 E.0071
G1 X112.372 Y88.653 E.00598
;WIDTH:0.533843
G1 X112.259 Y88.577 E.00555
;WIDTH:0.495895
G1 X112.146 Y88.501 E.00512
;WIDTH:0.457947
G1 X112.032 Y88.426 E.00469
;WIDTH:0.419999
G1 X111.919 Y88.087 E.01122
G1 X111.919 Y70.254 E.55912
G1 X111.973 Y70.014 E.00773
G1 X112.13 Y69.814 E.00797
G1 X112.387 Y69.697 E.00886
G1 X112.485 Y69.689 E.00308
G1 X120.415 Y69.689 E.24864
G1 X120.67 Y69.749 E.00822
G1 X120.87 Y69.919 E.00824
G1 X120.96 Y70.102 E.00639
G1 X120.981 Y70.254 E.00482
G1 X120.981 Y83.247 E.40738
G1 X122.033 Y83.247 E.03301
G1 X122.205 Y83.274 E.00546
G1 X122.382 Y83.368 E.00627
G1 X122.536 Y83.553 E.00754
G1 X122.599 Y83.813 E.00839
G1 X122.599 Y88.087 E.134
G1 X122.486 Y88.426 E.01122
;WIDTH:0.460378
G1 X122.401 Y88.5 E.00392
;WIDTH:0.500757
G1 X122.315 Y88.575 E.0043
;WIDTH:0.541136
G1 X122.23 Y88.649 E.00468
;WIDTH:0.581514
G1 X122.145 Y88.723 E.00506
G1 X122.277 Y88.743 E.006
;WIDTH:0.541136
G1 X122.41 Y88.764 E.00555
;WIDTH:0.500757
G1 X122.542 Y88.784 E.0051
;WIDTH:0.460378
G1 X122.675 Y88.804 E.00465
;WIDTH:0.419999
G1 X132.036 Y88.804 E.29353
G1 X132.257 Y88.849 E.00707
G1 X132.488 Y89.029 E.00917
G1 X132.571 Y89.185 E.00555
G1 X132.602 Y89.37 E.00586
G1 X132.602 Y93.812 E.1393
G1 X132.517 Y94.111 E.00974
G1 X132.324 Y94.3 E.00846
G1 X132.036 Y94.378 E.00933
G1 X69.589 Y94.378 E1.95799
G1 X69.315 Y94.307 E.00887
G1 X69.116 Y94.123 E.0085
G1 X69.029 Y93.893 E.00771
G1 X69.023 Y89.37 E.14183
G1 X69.076 Y89.132 E.00763
G1 X69.254 Y88.914 E.00882
G1 X69.459 Y88.819 E.00709
G1 X70.433 Y88.804 E.03055
G1 X81.043 Y88.804 E.33268
G1 X96.247 Y88.811 E.47669
G1 X95.681 Y88.252 E.02493
G1 X95.681 Y73.189 E.47227
G1 X95.752 Y72.914 E.0089
G1 X95.918 Y72.729 E.00778
G1 X96.186 Y72.627 E.00902
G1 X96.247 Y72.623 E.00189
G1 X100.001 Y72.623 E.11773
G1 X100.25 Y72.681 E.00802
G1 X100.472 Y72.875 E.00922
G1 X100.563 Y73.123 E.00829
G1 X100.567 Y88.252 E.47435
G1 X100.207 Y88.677 E.01748
M204 P1000
G1 E-2.24 F4200
;WIPE_START
G1 F7200
G1 X100.099 Y88.806 E-.09344
G1 X101.576 Y88.806 E-.81856
;WIPE_END
G1 E-.048 F4200
G1 Z.4 F720
G1 X132.225 Y93.812 F9000
G1 Z.2 F720
G1 E3.2 F2400
M204 P800
;TYPE:External perimeter
G1 F1200
G1 X132.166 Y93.949 E.00466
G1 X132.036 Y94.001 E.00439
G1 X69.589 Y94.001 E1.95799
G1 X69.442 Y93.931 E.00511
G1 X69.4 Y93.812 E.00392
G1 X69.4 Y89.37 E.1393
G1 X69.444 Y89.249 E.00403
G1 X69.589 Y89.181 E.00501
G1 X132.036 Y89.181 E1.95799
G1 X132.187 Y89.256 E.00527
M73 P1 R81
G1 X132.225 Y89.37 E.00375
G1 X132.225 Y93.752 E.13742
M204 P1000
G1 X132.329 Y93.918 F9000
G1 E-2.24 F4200
;WIPE_START
G1 F7200
G1 X132.166 Y93.949 E-.11363
G1 X132.036 Y94.001 E-.07761
G1 X130.736 Y94.001 E-.72076
;WIPE_END
G1 E-.048 F4200
G1 Z.4 F720
G1 X64.349 Y88.767 F9000
G1 Z.2 F720
G1 E3.2 F2400
M204 P800
;TYPE:Perimeter
G1 F1200
G1 X52.113 Y88.774 E.38367
G1 X51.834 Y88.701 E.00903
G1 X51.66 Y88.548 E.00727
G1 X51.555 Y88.302 E.00838
G1 X51.547 Y88.209 E.00295
G1 X51.547 Y84.446 E.11798
G1 X51.615 Y84.176 E.00873
G1 X51.779 Y83.989 E.00779
G1 X52.019 Y83.888 E.00817
G1 X52.113 Y83.88 E.00293
G1 X64.315 Y83.88 E.38261
G1 X64.592 Y83.952 E.00895
G1 X64.778 Y84.12 E.00786
G1 X64.868 Y84.325 E.00702
G1 X64.881 Y88.209 E.12177
G1 X64.829 Y88.446 E.00763
G1 X64.631 Y88.678 E.00954
G1 X64.409 Y88.766 E.00751
M204 P1000
G1 X64.315 Y88.397 F9000
M204 P800
;TYPE:External perimeter
G1 F1200
G1 X52.113 Y88.397 E.38261
G1 X51.98 Y88.342 E.0045
G1 X51.924 Y88.209 E.00455
G1 X51.924 Y84.446 E.11798
G1 X51.981 Y84.31 E.00461
G1 X52.113 Y84.257 E.00444
G1 X64.315 Y84.257 E.38261
G1 X64.461 Y84.326 E.00507
G1 X64.504 Y84.446 E.00397
G1 X64.504 Y88.209 E.11798
G1 X64.457 Y88.333 E.00416
G1 X64.37 Y88.372 E.003
M204 P1000
G1 X64.212 Y88.784 F9000
G1 E-2.24 F4200
;WIPE_START
G1 F7200
G1 X62.724 Y88.376 E-.912
;WIPE_END
G1 E-.048 F4200
G1 Z.4 F720
G1 X70.915 Y62.697 F9000
G1 Z.2 F720
G1 E3.2 F2400
M204 P800
;TYPE:Perimeter
G1 F1200
G1 X71.35 Y62.7 E.01365
G1 X71.938 Y62.875 E.01925
G1 X72.303 Y63.105 E.01351
G1 X72.675 Y63.42 E.01531
G1 X72.978 Y63.867 E.01693
G1 X73.058 Y64.046 E.00613
G1 X73.192 Y64.56 E.01664
G1 X73.208 Y64.749 E.00597
G1 X73.163 Y65.291 E.01706
G1 X73.115 Y65.478 E.00603
G1 X72.892 Y65.97 E.01693
G1 X72.805 Y66.106 E.00508
G1 X72.412 Y66.518 E.01785
G1 X72.258 Y66.631 E.00599
G1 X71.776 Y66.874 E.01693
G1 X71.593 Y66.93 E.00599
G1 X71.058 Y66.999 E.01693
G1 X70.867 Y66.991 E.00599
G1 X70.339 Y66.877 E.01693
G1 X70.162 Y66.806 E.00599
G1 X69.702 Y66.523 E.01693
G1 X69.458 Y66.272 E.01099
G1 X69.126 Y65.81 E.01783
G1 X68.946 Y65.301 E.01693
G1 X68.914 Y65.112 E.00599
G1 X68.914 Y64.572 E.01693
G1 X68.946 Y64.384 E.00599
G1 X69.126 Y63.875 E.01693
G1 X69.219 Y63.708 E.00599
G1 X69.558 Y63.288 E.01693
G1 X70.162 Y62.878 E.02286
G1 X70.855 Y62.697 E.02246
M204 P1000
G1 X70.987 Y63.067 F9000
M204 P800
;TYPE:External perimeter
G1 F1200
G1 X71.312 Y63.078 E.01018
G1 X71.828 Y63.236 E.01693
G1 X72.319 Y63.585 E.0189
G1 X72.665 Y64.079 E.0189
G1 X72.827 Y64.655 E.01876
G1 X72.787 Y65.26 E.01902
G1 X72.52 Y65.86 E.02059
G1 X72.14 Y66.257 E.01723
G1 X71.606 Y66.538 E.0189
G1 X71.01 Y66.625 E.0189
G1 X70.418 Y66.509 E.0189
G1 X69.9 Y66.202 E.0189
G1 X69.513 Y65.74 E.0189
G1 X69.302 Y65.175 E.0189
G1 X69.291 Y64.572 E.0189
G1 X69.481 Y64 E.0189
G1 X69.852 Y63.525 E.0189
G1 X70.359 Y63.2 E.0189
G1 X70.927 Y63.065 E.0183
M204 P1000
G1 X71.119 Y62.77 F9000
G1 E-2.24 F4200
;WIPE_START
G1 F7200
G1 X71.312 Y63.078 E-.21317
G1 X71.828 Y63.236 E-.29926
G1 X72.319 Y63.585 E-.33404
G1 X72.387 Y63.682 E-.06552
;WIPE_END
G1 E-.048 F4200
G1 Z.4 F720
G1 X64.874 Y64.101 F9000
G1 Z.2 F720
G1 E3.2 F2400
M204 P800
;TYPE:Perimeter
G1 F1200
G1 X64.881 Y67.889 E.11875
G1 X64.806 Y68.17 E.00912
G1 X64.62 Y68.365 E.00846
G1 X64.361 Y68.452 E.00859
G1 X49.173 Y68.454 E.47621
G1 X48.925 Y68.397 E.00798
G1 X48.746 Y68.261 E.00704
G1 X48.615 Y67.986 E.00953
G1 X48.607 Y64.126 E.12105
G1 X48.688 Y63.833 E.00951
G1 X48.877 Y63.643 E.00839
G1 X49.016 Y63.582 E.00477
G1 X49.173 Y63.56 E.00496
G1 X64.315 Y63.56 E.4748
G1 X64.491 Y63.588 E.00559
G1 X64.756 Y63.771 E.01008
G1 X64.873 Y64.041 E.00924
M204 P1000
G1 X64.504 Y64.126 F9000
M204 P800
;TYPE:External perimeter
G1 F1200
G1 X64.504 Y67.889 E.11798
G1 X64.438 Y68.031 E.00493
G1 X64.315 Y68.077 E.00412
G1 X49.173 Y68.077 E.4748
G1 X49.03 Y68.013 E.00489
G1 X48.984 Y67.889 E.00415
G1 X48.984 Y64.126 E.11798
G1 X49.037 Y63.994 E.00444
G1 X49.12 Y63.944 E.00304
G1 X64.315 Y63.937 E.47643
G1 X64.462 Y64.007 E.0051
G1 X64.484 Y64.069 E.00205
M204 P1000
G1 X64.89 Y64.229 F9000
G1 E-2.24 F4200
;WIPE_START
G1 F7200
G1 X64.493 Y65.715 E-.912
;WIPE_END
G1 E-.048 F4200
G1 Z.4 F720
G1 X100.001 Y88.44 F9000
G1 Z.2 F720
G1 E3.2 F2400
M204 P800
G1 F1200
G1 X96.247 Y88.44 E.11773
G1 X96.058 Y88.252 E.00836
G1 X96.058 Y73.189 E.47227
G1 X96.123 Y73.047 E.0049
G1 X96.247 Y73 E.00414
G1 X100.001 Y73 E.11773
G1 X100.065 Y73.012 E.00203
G1 X100.179 Y73.125 E.00502
G1 X100.19 Y88.252 E.4743
G1 X100.044 Y88.398 E.00648
M204 P1000
G1 X100 Y88.84 F9000
G1 E-2.24 F4200
;WIPE_START
G1 F7200
G1 X98.398 Y88.416 E-.912
;WIPE_END
G1 E-.048 F4200
G1 Z.4 F720
G1 X112.485 Y88.275 F9000
G1 Z.2 F720
G1 E3.2 F2400
M204 P800
G1 F1200
G1 X112.334 Y88.2 E.00529
G1 X112.296 Y88.087 E.00374
G1 X112.296 Y70.254 E.55912
G1 X112.367 Y70.107 E.0051
G1 X112.485 Y70.066 E.00393
G1 X120.415 Y70.066 E.24864
G1 X120.553 Y70.126 E.00474
G1 X120.603 Y70.254 E.00431
G1 X120.603 Y83.624 E.41921
G1 X122.033 Y83.624 E.04483
G1 X122.15 Y83.664 E.00386
G1 X122.222 Y83.813 E.00518
G1 X122.222 Y88.087 E.134
G1 X122.184 Y88.2 E.00374
G1 X122.033 Y88.275 E.00529
G1 X112.545 Y88.275 E.2975
M204 P1000
G1 X112.36 Y88.389 F9000
G1 E-2.24 F4200
;WIPE_START
G1 F7200
G1 X112.334 Y88.2 E-.12409
G1 X112.296 Y88.087 E-.06608
G1 X112.296 Y86.784 E-.72183
;WIPE_END
G1 E-.048 F4200
G1 Z.4 F720
G1 X128.908 Y62.698 F9000
G1 Z.2 F720
G1 E3.2 F2400
M204 P800
;TYPE:Perimeter
G1 F1200
G1 X129.27 Y62.695 E.01136
G1 X129.935 Y62.877 E.02161
G1 X130.539 Y63.284 E.02283
G1 X130.973 Y63.868 E.02283
G1 X131.052 Y64.042 E.00598
G1 X131.187 Y64.56 E.01677
G1 X131.205 Y64.703 E.00452
G1 X131.159 Y65.291 E.0185
G1 X131.11 Y65.477 E.00603
G1 X130.888 Y65.968 E.0169
G1 X130.408 Y66.516 E.02283
G1 X130.254 Y66.63 E.00599
G1 X129.773 Y66.872 E.0169
G1 X129.59 Y66.928 E.00599
G1 X129.056 Y66.997 E.0169
G1 X128.865 Y66.989 E.00599
G1 X128.338 Y66.875 E.0169
G1 X127.701 Y66.521 E.02283
G1 X127.328 Y66.11 E.01739
G1 X127.126 Y65.808 E.0114
G1 X126.946 Y65.3 E.0169
G1 X126.914 Y65.112 E.00599
G1 X126.914 Y64.573 E.0169
G1 X126.953 Y64.363 E.00668
G1 X127.126 Y63.876 E.01621
G1 X127.219 Y63.709 E.00599
G1 X127.558 Y63.29 E.0169
G1 X127.701 Y63.163 E.00599
G1 X128.16 Y62.881 E.0169
G1 X128.335 Y62.81 E.00593
G1 X128.848 Y62.699 E.01644
M204 P1000
G1 X128.966 Y63.069 F9000
M204 P800
;TYPE:External perimeter
G1 F1200
G1 X129.309 Y63.08 E.01075
G1 X129.825 Y63.238 E.01691
G1 X130.315 Y63.587 E.01888
G1 X130.661 Y64.08 E.01888
G1 X130.828 Y64.703 E.02023
G1 X130.783 Y65.26 E.01752
G1 X130.545 Y65.813 E.01889
G1 X130.136 Y66.255 E.01887
G1 X129.603 Y66.536 E.01888
G1 X129.008 Y66.623 E.01888
G1 X128.417 Y66.506 E.01888
G1 X127.899 Y66.2 E.01888
G1 X127.512 Y65.738 E.01887
G1 X127.302 Y65.175 E.01888
G1 X127.291 Y64.573 E.01888
G1 X127.481 Y64.001 E.01887
G1 X127.851 Y63.526 E.01888
G1 X128.358 Y63.202 E.01888
G1 X128.907 Y63.071 E.0177
M204 P1000
G1 X129.105 Y62.755 F9000
G1 E-2.24 F4200
;WIPE_START
G1 F7200
G1 X129.309 Y63.08 E-.22292
G1 X129.825 Y63.238 E-.29883
G1 X130.315 Y63.587 E-.33362
G1 X130.374 Y63.671 E-.05663
;WIPE_END
G1 E-.048 F4200
G1 Z.4 F720
G1 X76.278 Y121.334 F9000
G1 Z.2 F720
G1 E3.2 F2400
M204 P800
;TYPE:Perimeter
G1 F1200
G1 X76.267 Y122.841 E.04723
G1 X71.841 Y122.841 E.13877
G1 X71.841 Y121.406 E.04497
G1 X71.812 Y121.227 E.0057
G1 X71.742 Y121.088 E.00488
G1 X71.526 Y120.9 E.00897
G1 X71.275 Y120.841 E.00809
G1 X45.304 Y120.841 E.81429
G1 X44.836 Y120.811 E.01472
G1 X44.338 Y120.664 E.01627
G1 X43.882 Y120.416 E.01627
G1 X43.506 Y120.059 E.01627
G1 X43.212 Y119.631 E.01627
G1 X43.039 Y119.142 E.01627
G1 X42.969 Y118.597 E.01724
G1 X42.969 Y62.241 E1.76701
G1 X42.998 Y61.026 E.03809
G1 X43.146 Y60.529 E.01627
G1 X43.393 Y60.073 E.01627
G1 X43.751 Y59.696 E.01627
G1 X44.178 Y59.403 E.01627
G1 X44.667 Y59.229 E.01627
G1 X45.213 Y59.159 E.01724
G1 X71.364 Y59.152 E.81996
G1 X71.636 Y59.029 E.00935
G1 X71.77 Y58.867 E.00659
G1 X71.841 Y58.594 E.00887
G1 X71.841 Y57.159 E.04497
G1 X76.267 Y57.159 E.13877
G1 X76.267 Y58.594 E.04497
G1 X76.296 Y58.773 E.0057
G1 X76.384 Y58.939 E.0059
G1 X76.567 Y59.093 E.00748
G1 X76.832 Y59.159 E.00856
G1 X123.341 Y59.155 E1.45826
G1 X123.598 Y59.056 E.00864
G1 X123.768 Y58.867 E.00798
G1 X123.838 Y58.594 E.00885
G1 X123.838 Y57.159 E.04497
G1 X128.264 Y57.159 E.13877
G1 X128.264 Y58.594 E.04497
G1 X128.294 Y58.773 E.0057
G1 X128.395 Y58.955 E.00651
G1 X128.624 Y59.12 E.00888
G1 X128.83 Y59.159 E.00656
G1 X134.787 Y59.159 E.18679
G1 X135.333 Y59.229 E.01724
G1 X135.822 Y59.403 E.01627
G1 X136.249 Y59.696 E.01627
G1 X136.607 Y60.073 E.01627
G1 X136.854 Y60.529 E.01627
G1 X137.002 Y61.026 E.01627
G1 X137.031 Y61.495 E.01472
G1 X137.031 Y118.505 E1.78752
G1 X137.002 Y118.974 E.01472
M73 P1 R80
G1 X136.854 Y119.471 E.01627
G1 X136.607 Y119.927 E.01627
G1 X136.249 Y120.304 E.01627
G1 X135.822 Y120.597 E.01627
G1 X135.333 Y120.771 E.01627
G1 X134.787 Y120.841 E.01724
G1 X128.983 Y120.841 E.18199
G1 X128.643 Y120.873 E.01071
G1 X128.436 Y121 E.00762
G1 X128.294 Y121.227 E.0084
G1 X128.264 Y121.406 E.0057
G1 X128.264 Y122.841 E.04497
G1 X123.838 Y122.841 E.13877
G1 X123.838 Y121.406 E.04497
G1 X123.809 Y121.227 E.0057
G1 X123.666 Y121 E.0084
G1 X123.485 Y120.882 E.0068
G1 X123.273 Y120.841 E.00676
G1 X76.832 Y120.841 E1.45611
G1 X76.684 Y120.86 E.00468
G1 X76.45 Y120.989 E.00837
G1 X76.296 Y121.227 E.00889
G1 X76.288 Y121.275 E.00153
M204 P1000
G1 X76.644 Y121.406 F9000
M204 P800
;TYPE:External perimeter
G1 F1200
G1 X76.644 Y123.218 E.0568
G1 X71.464 Y123.218 E.16242
G1 X71.464 Y121.406 E.0568
G1 X71.406 Y121.271 E.00461
G1 X71.275 Y121.218 E.00444
G1 X45.304 Y121.218 E.81429
G1 X44.777 Y121.185 E.01658
G1 X44.194 Y121.012 E.01905
G1 X43.66 Y120.722 E.01905
G1 X43.219 Y120.304 E.01905
G1 X42.875 Y119.803 E.01905
G1 X42.672 Y119.23 E.01905
G1 X42.592 Y118.612 E.01956
G1 X42.592 Y61.495 E1.79086
G1 X42.625 Y60.967 E.01658
G1 X42.797 Y60.385 E.01905
G1 X43.087 Y59.851 E.01905
G1 X43.506 Y59.41 E.01905
G1 X44.006 Y59.066 E.01905
G1 X44.579 Y58.863 E.01905
G1 X45.198 Y58.782 E.01956
G1 X71.275 Y58.782 E.81763
G1 X71.395 Y58.739 E.00401
G1 X71.464 Y58.594 E.00503
G1 X71.464 Y56.782 E.0568
G1 X76.644 Y56.782 E.16242
G1 X76.644 Y58.594 E.0568
G1 X76.693 Y58.721 E.00429
G1 X76.832 Y58.782 E.00475
G1 X123.251 Y58.782 E1.45542
G1 X123.389 Y58.742 E.00452
