; generated by PrusaSlicer 2.5.0+win64 on 2025-01-02 at 22:24:31 UTC


;
;

;
;
; 

; external perimeters extrusion width = 0.45mm
; perimeters extrusion width = 0.45mm
; infill extrusion width = 0.45mm
; solid infill extrusion width = 0.45mm
; top infill extrusion width = 0.40mm
; first layer extrusion width = 0.42mm

M73 P0 R25
M201 X2500 Y2500 Z400 E5000 ; sets maximum accelerations, mm/sec^2
M203 X180 Y180 Z12 E80 ; sets maximum feedrates, mm / sec
M204 P1250 R1250 T2500 ; sets acceleration (P, T) and retract acceleration (R), mm/sec^2
M205 X8.00 Y8.00 Z2.00 E10.00 ; sets the jerk limits, mm/sec
M205 S0 T0 ; sets the minimum extruding and travel feed rate, mm/sec
M107
;TYPE:Custom
M862.3 P "MINI" ; printer model check
G90 ; use absolute coordinates
M83 ; extruder relative mode
M104 S170 ; set extruder temp for bed leveling
M140 S60 ; set bed temp
M109 R170 ; wait for bed leveling temp
M190 S60 ; wait for bed temp
M204 T1250 ; set travel acceleration
G28 ; home all without mesh bed level
G29 ; mesh bed leveling 
M204 T2500 ; restore travel acceleration
M104 S215 ; set extruder temp
G92 E0
G1 Y-2 X179 F2400
G1 Z3 F720
M109 S215 ; wait for extruder temp

; intro line
G1 X170 F1000
G1 Z0.2 F720
G1 X110 E8 F900
G1 X40 E10 F700
G92 E0

M221 S95 ; set flow
G21 ; set units to millimeters
G90 ; use absolute coordinates
M83 ; use relative distances for extrusion
M900 K0.2 ; Filament gcode LA 1.5
; ; Filament gcode LA 1.0
M107
;LAYER_CHANGE
;Z:0.2
;HEIGHT:0.2
;BEFORE_LAYER_CHANGE
G92 E0.0
;0.2


G1 E-3.2 F4200
M73 P1 R25
G1 Z.2 F720
;AFTER_LAYER_CHANGE
;0.2
G1 Z.4
G1 X71.407 Y75.488 F9000
G1 Z.2 F720
G1 E3.2 F2400
M204 P800
;TYPE:Skirt/Brim
;WIDTH:0.42
G1 F1200
G1 X72.452 Y74.611 E.04278
G1 X73.392 Y74.418 E.03008
G1 X106.608 Y74.418 E1.04146
G1 X107.915 Y74.809 E.04278
G1 X108.791 Y75.855 E.04278
G1 X108.985 Y76.795 E.03008
G1 X108.985 Y103.205 E.82809
G1 X108.593 Y104.512 E.04278
G1 X107.548 Y105.389 E.04278
G1 X106.608 Y105.582 E.03008
G1 X76.206 Y105.575 E.95324
G1 X74.91 Y105.37 E.04113
G1 X73.788 Y104.905 E.03808
G1 X73.085 Y104.44 E.02644
G1 X72.157 Y103.512 E.04113
G1 X71.692 Y102.809 E.02643
G1 X71.343 Y102.042 E.02643
G1 X71.118 Y101.23 E.02644
G1 X71.022 Y100.392 E.02644
G1 X71.015 Y76.795 E.73987
G1 X71.389 Y75.545 E.0409
M204 P1000
; printing object 4_STLink_Cover.STL id:0 copy 0
G1 E-2.24 F4200
;WIPE_START
G1 F7200
G1 X72.452 Y74.611 E-.78411
G1 X72.678 Y74.565 E-.12789
;WIPE_END
G1 E-.048 F4200
G1 Z.4 F720
G1 X96.069 Y102.418 F9000
G1 Z.2 F720
G1 E3.2 F2400
M204 P800
;TYPE:Perimeter
;WIDTH:0.419999
G1 F1200
G1 X76.515 Y102.418 E.61311
G1 X76.046 Y102.389 E.01472
G1 X75.549 Y102.241 E.01627
G1 X75.093 Y101.994 E.01627
G1 X74.716 Y101.637 E.01627
G1 X74.423 Y101.209 E.01627
G1 X74.249 Y100.72 E.01627
G1 X74.179 Y100.174 E.01724
G1 X74.179 Y77.582 E.70838
G1 X93.223 Y77.579 E.5971
G1 X94.408 Y77.478 E.03728
G1 X94.272 Y77.95 E.01539
G1 X94.211 Y78.458 E.01604
G1 X94.2 Y80.86 E.07532
G1 X94.211 Y80.972 E.00351
G1 X94.296 Y81.178 E.007
G1 X94.491 Y81.357 E.0083
G1 X94.766 Y81.429 E.0089
G1 X98.705 Y81.429 E.12353
G1 X99.319 Y81.402 E.01925
G1 X99.546 Y81.265 E.00832
G1 X99.667 Y81.088 E.00673
G1 X99.714 Y80.863 E.00722
G1 X99.704 Y78.537 E.07294
G1 X99.649 Y78.003 E.01683
G1 X99.507 Y77.479 E.01702
G1 X100.14 Y77.559 E.01999
G1 X100.658 Y77.578 E.01627
G1 X105.821 Y77.581 E.16187
G1 X105.821 Y80.634 E.0957
G1 X105.821 Y90.847 E.32025
;WIDTH:0.462741
G1 X105.799 Y91.142 E.01029
;WIDTH:0.505483
G1 X105.778 Y91.436 E.01134
;WIDTH:0.548224
G1 X105.757 Y91.73 E.01239
G1 X105.757 Y96.412 E.19672
;WIDTH:0.554909
G1 X105.776 Y96.808 E.0169
;WIDTH:0.509939
G1 X105.798 Y97.051 E.00947
;WIDTH:0.464969
G1 X105.821 Y97.294 E.00856
;WIDTH:0.419999
G1 X105.821 Y102.418 E.16066
G1 X96.129 Y102.418 E.30388
M204 P1000
G1 E-2.24 F4200
;WIPE_START
G1 F7200
G1 X94.483 Y102.418 E-.912
;WIPE_END
G1 E-.048 F4200
G1 Z.4 F720
G1 X73.802 Y77.205 F9000
G1 Z.2 F720
G1 E3.2 F2400
M204 P800
;TYPE:External perimeter
G1 F1200
G1 X93.223 Y77.202 E.60892
G1 X93.997 Y77.145 E.02434
M73 P2 R25
G1 X94.72 Y77.029 E.02295
;WIDTH:0.419331
G1 X95.21 Y77.004 E.01538
G1 X98.669 Y77.004 E.10824
G1 X99.147 Y77.02 E.01498
;WIDTH:0.419999
G1 X99.641 Y77.121 E.01582
G1 X100.154 Y77.182 E.01619
G1 X100.658 Y77.201 E.01582
G1 X106.198 Y77.205 E.17369
G1 X106.198 Y80.634 E.10751
G1 X106.198 Y102.795 E.69487
G1 X76.515 Y102.795 E.93069
G1 X75.987 Y102.762 E.01658
G1 X75.404 Y102.59 E.01905
G1 X74.87 Y102.3 E.01905
G1 X74.43 Y101.881 E.01905
G1 X74.086 Y101.381 E.01905
G1 X73.883 Y100.808 E.01905
G1 X73.802 Y100.189 E.01956
G1 X73.802 Y77.265 E.71879
M204 P1000
G1 X74.149 Y77.404 F9000
G1 E-2.24 F4200
;WIPE_START
G1 F7200
G1 X75.448 Y77.259 E-.912
;WIPE_END
G1 E-.048 F4200
G1 Z.4 F720
G1 X94.577 Y80.862 F9000
G1 Z.2 F720
G1 E3.2 F2400
M204 P800
G1 F1200
G1 X94.588 Y78.46 E.07532
G1 X94.652 Y77.966 E.0156
G1 X94.791 Y77.514 E.01485
G1 X94.931 Y77.387 E.00592
;WIDTH:0.419332
G1 X98.669 Y77.381 E.11699
G1 X99.029 Y77.403 E.0113
;WIDTH:0.419999
G1 X99.123 Y77.514 E.00455
G1 X99.269 Y77.998 E.01585
G1 X99.326 Y78.539 E.01705
G1 X99.337 Y80.863 E.07288
G1 X99.281 Y80.997 E.00456
G1 X99.177 Y81.049 E.00364
G1 X94.766 Y81.052 E.13832
G1 X94.619 Y80.982 E.00509
G1 X94.597 Y80.919 E.00209
M204 P1000
G1 X94.191 Y80.757 F9000
G1 E-2.24 F4200
;WIPE_START
G1 F7200
G1 X94.591 Y79.273 E-.912
;WIPE_END
G1 E-.048 F4200
G1 Z.4 F720
G1 X98.162 Y96.528 F9000
G1 Z.2 F720
G1 E3.2 F2400
M204 P800
;TYPE:Perimeter
G1 F1200
G1 X98.14 Y96.412 E.0037
G1 X98.14 Y91.73 E.1468
G1 X98.208 Y91.46 E.00873
G1 X98.403 Y91.252 E.00893
G1 X98.624 Y91.17 E.00739
G1 X104.622 Y91.164 E.18806
G1 X104.961 Y91.277 E.01122
;WIDTH:0.462741
G1 X105.058 Y91.428 E.00626
;WIDTH:0.505483
G1 X105.155 Y91.579 E.00689
;WIDTH:0.548224
G1 X105.251 Y91.73 E.00753
G1 X105.251 Y96.412 E.19672
;WIDTH:0.554909
G1 X105.245 Y96.521 E.00466
G1 X105.151 Y96.636 E.00632
;WIDTH:0.509939
G1 X105.056 Y96.75 E.00577
;WIDTH:0.464969
G1 X104.961 Y96.864 E.00521
;WIDTH:0.419999
G1 X104.622 Y96.977 E.01122
G1 X98.705 Y96.977 E.1855
G1 X98.439 Y96.911 E.0086
G1 X98.253 Y96.751 E.00769
G1 X98.184 Y96.583 E.00568
M204 P1000
G1 X98.517 Y96.412 F9000
M204 P800
;TYPE:External perimeter
G1 F1200
G1 X98.517 Y91.73 E.1468
G1 X98.585 Y91.585 E.00501
G1 X98.705 Y91.541 E.00403
G1 X104.622 Y91.541 E.1855
G1 X104.735 Y91.579 E.00374
G1 X104.81 Y91.73 E.00529
G1 X104.81 Y96.412 E.1468
G1 X104.735 Y96.563 E.00529
G1 X104.622 Y96.6 E.00374
G1 X98.705 Y96.6 E.1855
G1 X98.581 Y96.554 E.00415
G1 X98.542 Y96.466 E.00301
M204 P1000
G1 X98.131 Y96.308 F9000
G1 E-2.24 F4200
;WIPE_START
G1 F7200
G1 X98.533 Y94.821 E-.912
;WIPE_END
G1 E-.048 F4200
G1 Z.4 F720
G1 X105.708 Y78.464 F9000
G1 Z.2 F720
G1 E3.2 F2400
M204 P800
;TYPE:Solid infill
;WIDTH:0.423209
G1 F1200
G1 X105.108 Y77.864 E.02682
G1 X104.57 Y77.863 E.01702
G1 X105.538 Y78.832 E.0433
G1 X105.538 Y79.369 E.01701
G1 X104.032 Y77.863 E.06736
G1 X103.494 Y77.863 E.01702
G1 X105.538 Y79.907 E.09142
G1 X105.538 Y80.445 E.01701
G1 X102.956 Y77.863 E.11549
G1 X102.417 Y77.862 E.01702
G1 X105.538 Y80.983 E.13955
G1 X105.538 Y81.521 E.01701
G1 X101.879 Y77.862 E.16361
G1 X101.341 Y77.862 E.01702
G1 X105.538 Y82.059 E.18768
G1 X105.538 Y82.596 E.01701
G1 X100.803 Y77.861 E.21174
G1 X100.25 Y77.846 E.0175
G1 X105.538 Y83.134 E.23648
G1 X105.538 Y83.672 E.01701
G1 X99.942 Y78.076 E.25025
G1 X99.986 Y78.452 E.01197
G1 X99.986 Y78.658 E.00651
G1 X105.538 Y84.21 E.24828
G1 X105.538 Y84.748 E.01701
G1 X99.986 Y79.195 E.24829
G1 X99.986 Y79.733 E.017
G1 X105.538 Y85.285 E.24829
G1 X105.538 Y85.823 E.01701
M73 P2 R24
G1 X99.986 Y80.271 E.2483
G1 X99.986 Y80.809 E.017
G1 X105.538 Y86.361 E.2483
G1 X105.538 Y86.899 E.01701
G1 X99.896 Y81.257 E.2523
G1 X99.743 Y81.47 E.00829
G1 X99.642 Y81.541 E.0039
G1 X105.538 Y87.437 E.26366
G1 X105.538 Y87.974 E.01701
M73 P3 R24
G1 X99.265 Y81.702 E.28051
G1 X98.737 Y81.711 E.0167
G1 X105.538 Y88.512 E.30413
G1 X105.538 Y89.05 E.01701
G1 X98.199 Y81.711 E.32818
G1 X97.662 Y81.711 E.01701
G1 X105.538 Y89.588 E.35223
G1 X105.538 Y90.126 E.01701
G1 X97.124 Y81.711 E.37628
G1 X96.586 Y81.711 E.01701
G1 X105.538 Y90.663 E.40033
G1 X105.538 Y90.841 E.0056
G1 X105.492 Y91.156 E.01006
G1 X96.048 Y81.711 E.42233
G1 X95.51 Y81.711 E.01701
G1 X104.702 Y90.903 E.41105
G1 X104.637 Y90.881 E.00217
G1 X104.143 Y90.881 E.01563
G1 X94.803 Y81.542 E.41766
M204 P1000
G1 E-2.24 F4200
;WIPE_START
G1 F7200
G1 X95.967 Y82.705 E-.912
;WIPE_END
G1 E-.048 F4200
G1 Z.4 F720
G1 X94.136 Y78.185 F9000
G1 Z.2 F720
G1 E3.2 F2400
M204 P800
G1 F1200
G1 X93.773 Y77.823 E.01622
G1 X93.271 Y77.859 E.01591
G1 X93.928 Y78.516 E.02938
G1 X93.926 Y79.051 E.01693
G1 X92.736 Y77.862 E.05318
G1 X92.199 Y77.862 E.017
G1 X93.923 Y79.586 E.07711
G1 X93.921 Y80.122 E.01693
G1 X91.661 Y77.862 E.10105
G1 X91.123 Y77.862 E.017
G1 X94.087 Y80.826 E.13255
M204 P1000
G1 E-2.24 F4200
;WIPE_START
G1 F7200
G1 X92.924 Y79.662 E-.912
;WIPE_END
G1 E-.048 F4200
G1 Z.4 F720
G1 X90.416 Y77.693 F9000
G1 Z.2 F720
G1 E3.2 F2400
M204 P800
G1 F1200
G1 X103.605 Y90.881 E.5898
G1 X103.067 Y90.881 E.01701
G1 X90.048 Y77.862 E.58221
G1 X89.51 Y77.862 E.017
G1 X102.529 Y90.881 E.5822
G1 X101.991 Y90.881 E.01701
G1 X88.972 Y77.862 E.5822
G1 X88.435 Y77.862 E.017
G1 X101.454 Y90.881 E.5822
G1 X100.916 Y90.881 E.01701
G1 X87.897 Y77.863 E.58219
G1 X87.359 Y77.863 E.017
G1 X100.378 Y90.881 E.58219
G1 X99.84 Y90.881 E.01701
G1 X86.821 Y77.863 E.58219
G1 X86.284 Y77.863 E.017
G1 X99.302 Y90.881 E.58218
G1 X98.77 Y90.887 E.01684
M73 P4 R24
G1 X85.746 Y77.863 E.58242
G1 X85.208 Y77.863 E.017
G1 X98.324 Y90.979 E.58654
G1 X98.252 Y91.012 E.00252
G1 X98.092 Y91.143 E.00652
G1 X98.032 Y91.225 E.00322
G1 X84.67 Y77.863 E.59752
G1 X84.133 Y77.863 E.017
G1 X97.873 Y91.604 E.61446
G1 X97.857 Y91.724 E.00383
G1 X97.858 Y92.126 E.01272
G1 X83.595 Y77.863 E.63781
G1 X83.057 Y77.863 E.017
G1 X97.858 Y92.664 E.66189
G1 X97.859 Y93.203 E.01703
G1 X82.519 Y77.863 E.68597
G1 X81.982 Y77.863 E.017
G1 X97.86 Y93.741 E.71005
G1 X97.861 Y94.28 E.01703
G1 X81.444 Y77.863 E.73414
G1 X80.906 Y77.864 E.017
G1 X97.861 Y94.819 E.75822
G1 X97.862 Y95.357 E.01703
G1 X80.369 Y77.864 E.7823
G1 X79.831 Y77.864 E.017
G1 X98.033 Y96.066 E.81398
M204 P1000
G1 E-2.24 F4200
;WIPE_START
G1 F7200
G1 X96.869 Y94.902 E-.912
;WIPE_END
G1 E-.048 F4200
G1 Z.4 F720
G1 X105.196 Y96.775 F9000
G1 Z.2 F720
G1 E3.2 F2400
M204 P800
G1 F1200
G1 X105.496 Y97.075 E.0134
G1 X105.538 Y97.303 E.00733
G1 X105.538 Y97.655 E.01113
G1 X105.017 Y97.134 E.02331
G1 X104.605 Y97.26 E.01361
G1 X105.538 Y98.193 E.0417
G1 X105.538 Y98.731 E.01701
G1 X104.068 Y97.26 E.06575
G1 X103.53 Y97.26 E.01701
G1 X105.538 Y99.268 E.0898
G1 X105.538 Y99.806 E.01701
G1 X102.992 Y97.26 E.11385
G1 X102.454 Y97.26 E.01701
G1 X105.538 Y100.344 E.1379
G1 X105.538 Y100.882 E.01701
M73 P5 R24
G1 X101.916 Y97.26 E.16195
G1 X101.379 Y97.26 E.01701
G1 X105.538 Y101.42 E.186
G1 X105.538 Y101.957 E.01701
G1 X100.841 Y97.26 E.21006
G1 X100.303 Y97.26 E.01701
G1 X105.178 Y102.135 E.21802
G1 X104.64 Y102.135 E.01701
G1 X99.765 Y97.26 E.21802
G1 X99.227 Y97.26 E.01701
G1 X104.103 Y102.135 E.21802
G1 X103.565 Y102.135 E.01701
G1 X98.688 Y97.259 E.21808
G1 X98.497 Y97.235 E.0061
G1 X98.306 Y97.161 E.00646
G1 X98.148 Y97.052 E.00609
G1 X98.027 Y96.922 E.00562
G1 X97.941 Y96.781 E.0052
G1 X97.864 Y96.526 E.00843
G1 X97.864 Y96.434 E.0029
G1 X79.293 Y77.864 E.83046
G1 X78.755 Y77.864 E.017
G1 X103.027 Y102.135 E1.08541
G1 X102.489 Y102.135 E.01701
G1 X78.218 Y77.864 E1.0854
G1 X77.68 Y77.864 E.017
G1 X101.951 Y102.135 E1.0854
G1 X101.414 Y102.135 E.01701
G1 X77.142 Y77.864 E1.0854
G1 X76.604 Y77.864 E.017
G1 X100.876 Y102.135 E1.08539
G1 X100.338 Y102.135 E.01701
G1 X76.067 Y77.864 E1.08539
G1 X75.529 Y77.864 E.017
G1 X99.8 Y102.135 E1.08539
G1 X99.262 Y102.135 E.01701
M73 P6 R24
G1 X74.991 Y77.864 E1.08538
G1 X74.462 Y77.864 E.01673
G1 X98.725 Y102.135 E1.08519
G1 X98.187 Y102.135 E.01701
G1 X74.462 Y78.411 E1.06095
G1 X74.462 Y78.949 E.01701
G1 X97.649 Y102.135 E1.0369
G1 X97.111 Y102.135 E.01701
G1 X74.462 Y79.486 E1.01285
G1 X74.462 Y80.024 E.01701
G1 X96.573 Y102.135 E.9888
G1 X96.035 Y102.135 E.01701
G1 X74.462 Y80.562 E.96475
G1 X74.462 Y81.1 E.01701
M73 P6 R23
G1 X95.498 Y102.135 E.9407
G1 X94.96 Y102.135 E.01701
G1 X74.462 Y81.638 E.91665
G1 X74.462 Y82.175 E.01701
M73 P7 R23
G1 X94.422 Y102.135 E.8926
G1 X93.884 Y102.135 E.01701
G1 X74.462 Y82.713 E.86855
G1 X74.462 Y83.251 E.01701
G1 X93.346 Y102.135 E.8445
G1 X92.809 Y102.135 E.01701
G1 X74.462 Y83.789 E.82045
G1 X74.462 Y84.327 E.01701
G1 X92.271 Y102.135 E.7964
G1 X91.733 Y102.135 E.01701
G1 X74.462 Y84.864 E.77234
G1 X74.462 Y85.402 E.01701
G1 X91.195 Y102.135 E.74829
G1 X90.657 Y102.135 E.01701
G1 X74.462 Y85.94 E.72424
G1 X74.462 Y86.478 E.01701
G1 X90.12 Y102.135 E.70019
G1 X89.582 Y102.135 E.01701
G1 X74.462 Y87.016 E.67614
G1 X74.462 Y87.554 E.01701
G1 X89.044 Y102.135 E.65209
G1 X88.506 Y102.135 E.01701
G1 X74.462 Y88.091 E.62804
G1 X74.462 Y88.629 E.01701
G1 X87.968 Y102.135 E.60399
G1 X87.431 Y102.135 E.01701
M73 P8 R23
G1 X74.462 Y89.167 E.57994
G1 X74.462 Y89.705 E.01701
G1 X86.893 Y102.135 E.55589
G1 X86.355 Y102.135 E.01701
G1 X74.462 Y90.243 E.53184
G1 X74.462 Y90.78 E.01701
G1 X85.817 Y102.135 E.50779
G1 X85.279 Y102.135 E.01701
G1 X74.462 Y91.318 E.48374
G1 X74.462 Y91.856 E.01701
G1 X84.741 Y102.135 E.45969
G1 X84.204 Y102.135 E.01701
G1 X74.462 Y92.394 E.43564
G1 X74.462 Y92.932 E.01701
G1 X83.666 Y102.135 E.41159
G1 X83.128 Y102.135 E.01701
G1 X74.462 Y93.469 E.38754
G1 X74.462 Y94.007 E.01701
G1 X82.59 Y102.135 E.36349
G1 X82.052 Y102.135 E.01701
G1 X74.462 Y94.545 E.33944
G1 X74.462 Y95.083 E.01701
G1 X81.515 Y102.135 E.31539
G1 X80.977 Y102.135 E.01701
G1 X74.462 Y95.621 E.29134
G1 X74.462 Y96.158 E.01701
G1 X80.439 Y102.135 E.26729
G1 X79.901 Y102.135 E.01701
G1 X74.462 Y96.696 E.24324
G1 X74.462 Y97.234 E.01701
G1 X79.363 Y102.135 E.21919
G1 X78.826 Y102.135 E.01701
G1 X74.462 Y97.772 E.19514
G1 X74.462 Y98.31 E.01701
G1 X78.288 Y102.135 E.17109
G1 X77.75 Y102.135 E.01701
G1 X74.462 Y98.848 E.14704
G1 X74.462 Y99.385 E.01701
G1 X77.212 Y102.135 E.12299
G1 X76.674 Y102.135 E.01701
G1 X74.462 Y99.923 E.09893
G1 X74.487 Y100.486 E.01783
G1 X76.111 Y102.11 E.07261
G1 X75.797 Y102.038 E.0102
G1 X75.517 Y101.922 E.00956
G1 X75.26 Y101.764 E.00956
G1 X75.039 Y101.576 E.00915
G1 X74.455 Y100.992 E.02613
M204 P1000
; stop printing object 4_STLink_Cover.STL id:0 copy 0
M106 S84.15
;LAYER_CHANGE
;Z:0.35
;HEIGHT:0.15
;BEFORE_LAYER_CHANGE
G92 E0.0
;0.35


G1 E-2.24 F4200
;WIPE_START
G1 F7200
G1 X75.039 Y101.576 E-.45802
G1 X75.26 Y101.764 E-.16039
G1 X75.517 Y101.922 E-.16756
G1 X75.727 Y102.009 E-.12604
;WIPE_END
G1 E-.048 F4200
G1 Z.4 F720
;AFTER_LAYER_CHANGE
;0.35
G1 X74.42 Y105.167 F9000
G1 Z.35 F720
G1 E3.2 F2400
;TYPE:Skirt/Brim
;WIDTH:0.42
G1 X73.788 Y104.905 E.01653
G1 X73.085 Y104.44 E.02039
G1 X72.157 Y103.512 E.03172
G1 X71.692 Y102.809 E.02039
G1 X71.343 Y102.042 E.02039
G1 X71.118 Y101.23 E.02039
G1 X71.022 Y100.392 E.02039
G1 X71.015 Y76.795 E.5707
G1 X71.407 Y75.488 E.033
G1 X72.452 Y74.611 E.033
G1 X73.392 Y74.418 E.02321
G1 X106.608 Y74.418 E.80332
G1 X107.915 Y74.809 E.033
G1 X108.791 Y75.855 E.033
G1 X108.985 Y76.795 E.02321
G1 X108.985 Y103.205 E.63874
G1 X108.593 Y104.512 E.033
M73 P9 R23
G1 X107.548 Y105.389 E.033
G1 X106.608 Y105.582 E.02321
G1 X76.206 Y105.575 E.73528
G1 X74.91 Y105.37 E.03172
G1 X74.475 Y105.19 E.01139
; printing object 4_STLink_Cover.STL id:0 copy 0
G1 E-2.24 F4200
;WIPE_START
G1 F7200
G1 X73.788 Y104.905 E-.41199
G1 X73.085 Y104.44 E-.46729
G1 X73.043 Y104.398 E-.03272
;WIPE_END
G1 E-.048 F4200
G1 Z.55 F720
G1 X74.035 Y77.437 F9000
G1 Z.35 F720
G1 E3.2 F2400
M204 P800
;TYPE:Perimeter
;WIDTH:0.449999
G1 X94.459 Y77.437 E.53218
G1 X94.345 Y77.574 E.00466
G1 X94.345 Y80.658 E.08034
G1 X94.357 Y80.783 E.00328
G1 X94.488 Y81.057 E.00791
G1 X94.7 Y81.223 E.00702
G1 X94.971 Y81.284 E.00724
G1 X98.911 Y81.284 E.10265
G1 X99.144 Y81.251 E.00614
G1 X99.389 Y81.097 E.00755
G1 X99.519 Y80.904 E.00607
G1 X99.57 Y80.658 E.00656
